src/images/home/Slack_Mark_Monochrome_White.svg

<?xml version="1.0" encoding="UTF-8"?>
<svg width="24px" height="24px" viewBox="0 0 24 24" version="1.1" xmlns="http://www.w3.org/2000/svg" xmlns:xlink="http://www.w3.org/1999/xlink">
    <!-- Generator: Sketch 46.2 (44496) - http://www.bohemiancoding.com/sketch -->
    <title>Slack_Mark_Monochrome_White</title>
    <desc>Created with Sketch.</desc>
    <defs></defs>
    <g id="Page-1" stroke="none" stroke-width="1" fill="none" fill-rule="evenodd">
        <g id="LSH-00-Copy-65" transform="translate(-1160.000000, -67.000000)" fill-rule="nonzero" fill="#FFFFFF">
            <g id="Slack_Mark_Monochrome_White" transform="translate(1160.000000, 67.000000)">
                <rect id="Rectangle-path" transform="translate(12.056808, 11.961082) rotate(-18.518296) translate(-12.056808, -11.961082) " x="10.3806565" y="10.3420723" width="3.35230217" height="3.23801914"></rect>
                <g id="Group">
                    <rect id="Rectangle-path" transform="translate(12.056808, 11.961082) rotate(-18.518296) translate(-12.056808, -11.961082) " x="10.3806565" y="10.3420723" width="3.35230217" height="3.23801914"></rect>
                    <path d="M22.9714286,8.66666667 C20.5142857,0.476190476 16.9714286,-1.42857143 8.78095238,1.02857143 C0.59047619,3.48571429 -1.31428571,7.02857143 1.14285714,15.2190476 C3.6,23.4095238 7.14285714,25.3142857 15.3333333,22.8571429 C23.5238095,20.4 25.4285714,16.8571429 22.9714286,8.66666667 Z M18.8380952,13.9809524 L17.2952381,14.4952381 L17.8285714,16.0952381 C18.0380952,16.7428571 17.6952381,17.447619 17.047619,17.6571429 C16.9142857,17.6952381 16.7619048,17.7333333 16.6285714,17.7142857 C16.1333333,17.6952381 15.6571429,17.3714286 15.4857143,16.8761905 L14.952381,15.2761905 L11.7714286,16.3428571 L12.3047619,17.9428571 C12.5142857,18.5904762 12.1714286,19.2952381 11.5238095,19.5047619 C11.3904762,19.5428571 11.2380952,19.5809524 11.1047619,19.5619048 C10.6095238,19.5428571 10.1333333,19.2190476 9.96190476,18.7238095 L9.42857143,17.1238095 L7.88571429,17.6380952 C7.75238095,17.6761905 7.6,17.7142857 7.46666667,17.6952381 C6.97142857,17.6761905 6.4952381,17.352381 6.32380952,16.8571429 C6.11428571,16.2095238 6.45714286,15.5047619 7.1047619,15.2952381 L8.64761905,14.7809524 L7.61904762,11.7142857 L6.07619048,12.2285714 C5.94285714,12.2666667 5.79047619,12.3047619 5.65714286,12.2857143 C5.16190476,12.2666667 4.68571429,11.9428571 4.51428571,11.447619 C4.3047619,10.8 4.64761905,10.0952381 5.2952381,9.88571429 L6.83809524,9.37142857 L6.3047619,7.77142857 C6.0952381,7.12380952 6.43809524,6.41904762 7.08571429,6.20952381 C7.73333333,6 8.43809524,6.34285714 8.64761905,6.99047619 L9.18095238,8.59047619 L12.3619048,7.52380952 L11.8285714,5.92380952 C11.6190476,5.27619048 11.9619048,4.57142857 12.6095238,4.36190476 C13.2571429,4.15238095 13.9619048,4.4952381 14.1714286,5.14285714 L14.7047619,6.74285714 L16.247619,6.22857143 C16.8952381,6.01904762 17.6,6.36190476 17.8095238,7.00952381 C18.0190476,7.65714286 17.6761905,8.36190476 17.0285714,8.57142857 L15.4857143,9.08571429 L16.5142857,12.152381 L18.0571429,11.6380952 C18.7047619,11.4285714 19.4095238,11.7714286 19.6190476,12.4190476 C19.8285714,13.0666667 19.4857143,13.7714286 18.8380952,13.9809524 Z" id="Shape"></path>
                </g>
            </g>
        </g>
    </g>
</svg>

<svg width="24" height="24" viewBox="0 0 24 24" xmlns="http://www.w3.org/2000/svg"><title>Slack_Mark_Monochrome_White</title><g fill="#FFF"><path transform="rotate(-18.518 12.057 11.961)" d="M10.381 10.342H13.733V13.58H10.381z"/><path transform="rotate(-18.518 12.057 11.961)" d="M10.381 10.342H13.733V13.58H10.381z"/><path d="M22.971 8.667c-2.457-8.19-6-10.096-14.19-7.638-8.19 2.457-10.095 6-7.638 14.19 2.457 8.19 6 10.095 14.19 7.638 8.19-2.457 10.096-6 7.638-14.19zm-4.133 5.314l-1.543.514.534 1.6a1.236 1.236 0 0 1-.781 1.562c-.134.038-.286.076-.42.057a1.271 1.271 0 0 1-1.142-.838l-.534-1.6-3.18 1.067.533 1.6a1.236 1.236 0 0 1-.781 1.562c-.134.038-.286.076-.42.057a1.271 1.271 0 0 1-1.142-.838l-.533-1.6-1.543.514c-.134.038-.286.076-.42.057a1.271 1.271 0 0 1-1.142-.838 1.236 1.236 0 0 1 .78-1.562l1.544-.514-1.029-3.067-1.543.515c-.133.038-.286.076-.419.057a1.271 1.271 0 0 1-1.143-.838 1.236 1.236 0 0 1 .781-1.562l1.543-.515-.533-1.6a1.236 1.236 0 0 1 .78-1.561 1.236 1.236 0 0 1 1.563.78l.533 1.6 3.18-1.066-.532-1.6a1.236 1.236 0 0 1 .78-1.562 1.236 1.236 0 0 1 1.562.78l.534 1.6 1.543-.513a1.236 1.236 0 0 1 1.562.78 1.236 1.236 0 0 1-.781 1.562l-1.543.515 1.028 3.066 1.543-.514a1.236 1.236 0 0 1 1.562.781 1.236 1.236 0 0 1-.78 1.562z"/></g></svg>
